X: 24494
T: Lucy Farr's
R: barndance
M: 4/4
K: Gmajor
(3DEF|G2 G2 G2 G2|GABG E2 D2|B2 B2 B2 B2|BcdB A2 G2||
|:BcdB G2 G2|GABG E2 D2|DEGA BddB|1 B2A2 A4:|2 A2 G2 G2||

